leaf-circle.svg

<svg fill="currentColor" viewBox="0 0 24 24"><path d="M12 2C6.5 2 2 6.5 2 12s4.5 10 10 10 10-4.5 10-10S17.5 2 12 2M9.6 17.2c-.22 0-.52-.08-.8-.2l-.57 1.4-1.14-.4.16-.39C8.45 14.59 9.83 11.15 15 10c0 0-6 0-7.95 5.55 0 0-1.05-1.05-1.05-2.25s1.2-3.75 4.2-4.35c.85-.17 1.8-.3 2.74-.45C15.3 8.18 17.57 7.86 18 7c0 0-1.8 10.2-8.4 10.2"/></svg>

<svg  viewBox="0 0 24 24" fill="currentColor"><path  d="M12 2C6.5 2 2 6.5 2 12S6.5 22 12 22 22 17.5 22 12 17.5 2 12 2M9.6 17.2C9.38 17.2 9.08 17.12 8.8 17L8.23 18.4L7.09 18L7.25 17.61C8.45 14.59 9.83 11.15 15 10C15 10 9 10 7.05 15.55C7.05 15.55 6 14.5 6 13.3S7.2 9.55 10.2 8.95C11.05 8.78 12 8.65 12.94 8.5C15.3 8.18 17.57 7.86 18 7C18 7 16.2 17.2 9.6 17.2Z"/></svg>
